symbols/web/medication_liquid/materialsymbolsrounded/medication_liquid_fill1_40px.svg

<svg xmlns="http://www.w3.org/2000/svg" height="40" width="40"><path d="M6.375 7.792q-.583 0-.979-.417t-.396-1q0-.583.396-.979T6.375 5h17.25q.583 0 .979.396t.396.979q0 .625-.396 1.021-.396.396-.979.396ZM15 28.875q.917 0 1.562-.646.646-.646.646-1.562v-1.959h1.959q.916 0 1.562-.646.646-.645.646-1.562t-.646-1.562q-.646-.646-1.562-.646h-1.959v-1.959q0-.916-.646-1.562-.645-.646-1.562-.646t-1.562.646q-.646.646-.646 1.562v1.959h-1.959q-.916 0-1.562.646-.646.645-.646 1.562t.646 1.562q.646.646 1.562.646h1.959v1.959q0 .916.646 1.562.645.646 1.562.646ZM6.125 35q-1.167 0-1.979-.812-.813-.813-.813-1.98V12.792q0-1.167.813-1.98Q4.958 10 6.125 10h17.75q1.167 0 1.979.812.813.813.813 1.98v19.416q0 1.167-.813 1.98-.812.812-1.979.812Zm27.5 0q-.583 0-1-.417-.417-.416-.417-.958V22.458q-1.458-.708-2.396-2.312-.937-1.604-.937-3.771 0-2.667 1.375-4.521T33.625 10q1.958 0 3.333 1.854 1.375 1.854 1.375 4.521 0 2.167-.937 3.771-.938 1.604-2.396 2.312v11.167q0 .542-.396.958-.396.417-.979.417Z"/></svg>

<svg xmlns="http://www.w3.org/2000/svg" height="40" width="40"><path d="M6.375 7.792Q5.792 7.792 5.396 7.375Q5 6.958 5 6.375Q5 5.792 5.396 5.396Q5.792 5 6.375 5H23.625Q24.208 5 24.604 5.396Q25 5.792 25 6.375Q25 7 24.604 7.396Q24.208 7.792 23.625 7.792ZM15 28.875Q15.917 28.875 16.562 28.229Q17.208 27.583 17.208 26.667V24.708H19.167Q20.083 24.708 20.729 24.062Q21.375 23.417 21.375 22.5Q21.375 21.583 20.729 20.938Q20.083 20.292 19.167 20.292H17.208V18.333Q17.208 17.417 16.562 16.771Q15.917 16.125 15 16.125Q14.083 16.125 13.438 16.771Q12.792 17.417 12.792 18.333V20.292H10.833Q9.917 20.292 9.271 20.938Q8.625 21.583 8.625 22.5Q8.625 23.417 9.271 24.062Q9.917 24.708 10.833 24.708H12.792V26.667Q12.792 27.583 13.438 28.229Q14.083 28.875 15 28.875ZM6.125 35Q4.958 35 4.146 34.188Q3.333 33.375 3.333 32.208V12.792Q3.333 11.625 4.146 10.812Q4.958 10 6.125 10H23.875Q25.042 10 25.854 10.812Q26.667 11.625 26.667 12.792V32.208Q26.667 33.375 25.854 34.188Q25.042 35 23.875 35ZM33.625 35Q33.042 35 32.625 34.583Q32.208 34.167 32.208 33.625V22.458Q30.75 21.75 29.812 20.146Q28.875 18.542 28.875 16.375Q28.875 13.708 30.25 11.854Q31.625 10 33.625 10Q35.583 10 36.958 11.854Q38.333 13.708 38.333 16.375Q38.333 18.542 37.396 20.146Q36.458 21.75 35 22.458V33.625Q35 34.167 34.604 34.583Q34.208 35 33.625 35Z"/></svg>
